svg/white/eur.svg

<svg height="32" viewBox="0 0 32 32" width="32" xmlns="http://www.w3.org/2000/svg"><path d="m16 32c-8.836556 0-16-7.163444-16-16s7.163444-16 16-16 16 7.163444 16 16-7.163444 16-16 16zm-8-12.9961415h1.99356396c1.10378674 3.9974477 3.73931944 5.9961415 7.90667744 5.9961415 1.5843468 0 2.9509194-.216075 4.0997586-.6482315v-2.3729904c-1.2089092.4938932-2.320188.740836-3.3338697.740836-1.4191543 0-2.5116615-.272023-3.2775543-.8160771-.7658928-.5440542-1.4153902-1.510604-1.9485116-2.8996785h4.9557522l.7996782-2.0025723h-6.1834272c-.030035-.378137-.0450523-.8064285-.0450523-1.2848875 0-.4167223.0187716-.7485518.0563154-.9954984h7.0957361l.8109412-2.0025723h-7.4223652c.7133315-2.2919729 2.3164263-3.43794215 4.8093323-3.43794215 1.2990142 0 2.5266769.25851832 3.6830249.77556275v-2.52347272c-1.2314355-.35498569-2.5304303-.53247588-3.8970233-.53247588-4.1598492 0-6.8329252 1.90609026-8.0193082 5.718328h-1.27272723l-.81094127 2.0025723h1.68946098c-.03754376.385854-.05631536.8025701-.05631536 1.2501608 0 .3318344.01126296.6752394.03378922 1.0302251h-.85599357z" fill="#fff" fill-rule="evenodd"/></svg>

<svg height="32" width="32" xmlns="http://www.w3.org/2000/svg"><path d="M16 32C7.163 32 0 24.837 0 16S7.163 0 16 0s16 7.163 16 16-7.163 16-16 16zM8 19.004h1.994C11.097 23 13.733 25 17.9 25c1.585 0 2.951-.216 4.1-.648v-2.373c-1.209.494-2.32.74-3.334.74-1.419 0-2.512-.271-3.277-.815-.766-.545-1.416-1.511-1.949-2.9h4.956l.8-2.003h-6.184c-.03-.378-.045-.806-.045-1.285 0-.416.019-.748.056-.995h7.096l.811-2.003h-7.422c.713-2.292 2.316-3.438 4.809-3.438a8.92 8.92 0 0 1 3.683.776V7.532A14.002 14.002 0 0 0 18.103 7c-4.16 0-6.833 1.906-8.02 5.718H8.812L8 14.721h1.69a12.95 12.95 0 0 0-.057 1.25c0 .332.011.675.034 1.03H8.81z" fill="#fff" fill-rule="evenodd"/></svg>
